X:1
T:Title
%%score { 1 | 2 }
L:1/8
M:3/4
K:A
V:1 treble nm="Grand Piano"
V:2 bass 
V:1
 z2 z2[Q:1/4=92] [Ec]>[DB] | [CA]3 [EA] [DB][DA] | [DF] [CE]3 [CA]>[EB] | [Ac]3 e ec | [GB]4 c>B | %5
 A3 [EA] [DB][DA] | [DF] [CE]3 [CEA]>[DEB] | [EAc]3 [EAc] [EAc][DGB] |[M:2/4] [CA]4 | %9
[M:1/4] [CA]>[Ec] |[M:3/4] [Fd]3 [Fd] [Fd][Ad] | f e3 c>[DGB] | [CFA]3 [CFA] [EGB][^DAc] | %13
 [EGB]4 [Ec]>[DB] | [CA]3 [A,EA] [DB][DA] | [DF] [CE]3[K:bass] [E,A,C]>[E,B,D] | %16
 [A,CE] [CEA]3 [Ec]>[DB] |[M:2/4] [CA]4 |] %18
V:2
 z2 z2 [A,,A,]>[A,,A,] | [A,,A,]3 [C,A,] [D,F,][D,F,] | [A,,A,] [A,,A,]3 [A,,A,]>[A,,A,] | %3
 [A,,A,]3[K:treble] [A,CA] [A,CA][A,EA] | [E,E]4 [A,E]>[A,D] | [A,C]3 [C,A,] [D,F,][D,F,] | %6
 [A,,A,] [A,,A,]3 A,,>A,, | A,,3 A,, E,E, |[M:2/4] A,,4 |[M:1/4] A,>A, | %10
[M:3/4] [D,A,]3 [D,A,] [D,A,][F,A,] | [A,DA] [A,CA]3 [A,EA]>[K:bass]E, | F,3 F, B,,B,, | %13
 E,4 A,>A, | A,3 C, [D,F,][D,F,] | [A,,A,] [A,,A,]3 A,,>A,, | A,, A,,3 [E,A,]>[E,G,] | %17
[M:2/4] [A,,A,]4 |] %18

